X:631
T:Turkey in the Straw
M:4/4
L:1/8
K:D
P:A
fe|"D"dcde d2FG|ABAF A2de|"D"f2f2 fede|"Em"f2e2 "A7"e2fe|
"D"dcde d2FG|ABAF A2de|"D"fa2b afde|"A7"f2e2 "D"d2:|
P:B
|:e2|"D"fa2f a2a2|fa2f a4|"G"gb2g b2b2|gb2g b2c'2|
"D"d'2d'2 a2a2|f2f2 "A7"e2de|"D"fa2b afde|"A7"f2e2 "D"d2:|




